resources/svg/major-products.svg

<svg xmlns="http://www.w3.org/2000/svg" viewBox="0 0 20 20" fill="currentColor"><path d="M11 1H17C18.1046 1 19 1.89543 19 3V9C19.0001 9.76792 18.7072 10.5359 18.1213 11.1218L11.1213 18.1218C9.94974 19.2933 8.05025 19.2933 6.87868 18.1218L1.87868 13.1218C0.707107 11.9502 0.707107 10.0507 1.87868 8.87913L8.87868 1.87913C9.46447 1.29335 10.2322 1 11 1ZM14 8C15.1046 8 16 7.10457 16 6C16 4.89543 15.1046 4 14 4C12.8954 4 12 4.89543 12 6C12 7.10457 12.8954 8 14 8Z" fill="#5C5F62"/></svg>

<svg xmlns="http://www.w3.org/2000/svg" viewBox="0 0 20 20" fill="currentColor"><path d="M11 1h6a2 2 0 0 1 2 2v6a2.99 2.99 0 0 1-.879 2.122l-7 7a3 3 0 0 1-4.242 0l-5-5a3 3 0 0 1 0-4.243l7-7a2.991 2.991 0 0 1 2.121-.879Zm3 7a2 2 0 1 0 0-4 2 2 0 0 0 0 4Z"/></svg>
